icons/pushpin-line.svg

<svg xmlns="http://www.w3.org/2000/svg" width="24" height="24" fill="none"><g clip-path="url(#a)"><g><path fill="#121212" d="M13.8277 1.68604L22.3137 10.172L20.8987 11.586L20.1917 10.879L15.9497 15.121L15.2427 18.657L13.8277 20.071L9.58568 15.828L4.63568 20.778L3.22168 19.364L8.17168 14.414L3.92868 10.172L5.34268 8.75704L8.87968 8.05004L13.1217 3.80804L12.4147 3.10104L13.8287 1.68604H13.8277ZM14.5357 5.22204L9.86468 9.89204L7.04268 10.457L13.5427 16.957L14.1067 14.135L18.7777 9.46504L14.5357 5.22204Z"/></g></g><defs><clipPath id="a"><rect width="24" height="24" fill="white"/></clipPath></defs></svg>

<svg width="24" height="24" fill="none" xmlns="http://www.w3.org/2000/svg"><g clip-path="url(#a)"><path d="m13.828 1.686 8.486 8.486-1.415 1.414-.707-.707-4.242 4.242-.707 3.536-1.415 1.414-4.242-4.243-4.95 4.95-1.414-1.414 4.95-4.95-4.243-4.242 1.414-1.415L8.88 8.05l4.242-4.242-.707-.707 1.414-1.415h-.001Zm.708 3.536-4.671 4.67-2.822.565 6.5 6.5.564-2.822 4.67-4.67-4.241-4.243Z" /></g><defs><clipPath id="a"><path fill="#fff" d="M0 0h24v24H0z"/></clipPath></defs></svg>
